archdroid-icon-theme/Archdroid-LightGreen/apps/scalable/terminal-symbolic.svg

<svg xmlns="http://www.w3.org/2000/svg" viewBox="0 0 48 48.00000000000001" fill="#8BC34A"><path d="m8 6c-2.216 0-4 1.784-4 4v28c0 2.216 1.784 4 4 4h32c2.216 0 4-1.784 4-4v-28c0-2.216-1.784-4-4-4h-32m0 4h32v28h-32v-28"/><text y="25.64" x="11.26" font-family="Inconsolata" letter-spacing="0" word-spacing="0" text-align="start" font-weight="bold" line-height="100%" font-size="20"><tspan y="25.64" x="11.26" text-align="start" line-height="100%">&gt;_</tspan></text></svg>

<?xml version="1.0" encoding="UTF-8" standalone="no"?>
<svg
   xmlns:dc="http://purl.org/dc/elements/1.1/"
   xmlns:cc="http://creativecommons.org/ns#"
   xmlns:rdf="http://www.w3.org/1999/02/22-rdf-syntax-ns#"
   xmlns:svg="http://www.w3.org/2000/svg"
   xmlns="http://www.w3.org/2000/svg"
   xmlns:sodipodi="http://sodipodi.sourceforge.net/DTD/sodipodi-0.dtd"
   xmlns:inkscape="http://www.inkscape.org/namespaces/inkscape"
   width="48"
   height="48"
   viewBox="0 0 48 48.00000000000001"
   id="svg2"
   version="1.1"
   inkscape:version="0.91 r13725"
   sodipodi:docname="terminal-symbolic.svg"
   style="fill:#8BC34A">
  <metadata
     id="metadata10">
    <rdf:RDF>
      <cc:Work
         rdf:about="">
        <dc:format>image/svg+xml</dc:format>
        <dc:type
           rdf:resource="http://purl.org/dc/dcmitype/StillImage" />
        <dc:title />
      </cc:Work>
    </rdf:RDF>
  </metadata>
  <defs
     id="defs8" />
  <sodipodi:namedview
     pagecolor="#ffffff"
     bordercolor="#666666"
     borderopacity="1"
     objecttolerance="10"
     gridtolerance="10"
     guidetolerance="10"
     inkscape:pageopacity="0"
     inkscape:pageshadow="2"
     inkscape:window-width="1366"
     inkscape:window-height="713"
     id="namedview6"
     showgrid="false"
     inkscape:snap-bbox="true"
     inkscape:bbox-paths="true"
     inkscape:bbox-nodes="true"
     inkscape:zoom="3.895702740690992"
     inkscape:cx="71.03806111330641"
     inkscape:cy="29.05543918216364"
     inkscape:window-x="0"
     inkscape:window-y="30"
     inkscape:window-maximized="1"
     inkscape:current-layer="svg2"
     fit-margin-top="0"
     fit-margin-left="0"
     fit-margin-right="0"
     fit-margin-bottom="0"
     inkscape:snap-page="true" />
  <path
     style="opacity:1;fill:#8BC34A;fill-opacity:1;fill-rule:nonzero;stroke:none;stroke-width:3;stroke-miterlimit:4;stroke-dasharray:none;stroke-opacity:1"
     d="M 8 6 C 5.784000000000001 6.000000000000001 4 7.784 4 10 L 4 38 C 4.000000000000001 40.216 5.784 42 8 42 L 40 42 C 42.216 42 44 40.216 44 38 L 44 10 C 44 7.784000000000001 42.216 6 40 6 L 8 6 z M 8 10 L 40 10 L 40 38 L 8 38 L 8 10 z "
     id="rect4146" />
  <text
     sodipodi:linespacing="100%"
     id="text4160"
     y="25.639999"
     x="11.26"
     style="font-style:normal;font-variant:normal;font-weight:bold;font-stretch:normal;font-size:20px;line-height:100%;font-family:Inconsolata;-inkscape-font-specification:'Inconsolata, Bold';text-align:start;letter-spacing:0px;word-spacing:0px;writing-mode:lr-tb;text-anchor:start;fill:#8BC34A;fill-opacity:1;stroke:none;stroke-width:1px;stroke-linecap:butt;stroke-linejoin:miter;stroke-opacity:1"
     xml:space="preserve"><tspan
       style="font-style:normal;font-variant:normal;font-weight:bold;font-stretch:normal;font-size:20px;line-height:100%;font-family:Inconsolata;-inkscape-font-specification:'Inconsolata, Bold';text-align:start;writing-mode:lr-tb;text-anchor:start;fill:#8BC34A;fill-opacity:1"
       y="25.639999"
       x="11.26"
       id="tspan4162"
       sodipodi:role="line">&gt;_</tspan></text>
</svg>
